packages/ui-icons/src/Basic/16/Zashchita_16.svg

<?xml version="1.0" encoding="utf-8"?>
<svg version="1.1" id="Слой_1" xmlns="http://www.w3.org/2000/svg" xmlns:xlink="http://www.w3.org/1999/xlink" x="0px" y="0px"
	 viewBox="0 0 20 20" style="enable-background:new 0 0 20 20;" xml:space="preserve">
<path id="Shape" d="M7.9883,11.5v-1.0002H6.9998v-1h0.9885v-4h3.0115c1.38064,0,2.5,1.11936,2.5,2.5s-1.11936,2.5-2.5,2.5H8.9883
	V11.5H12v1H8.9883v1.4883h-1V12.5H7v-1H7.9883z M8.32845,18l-0.13542-0.10532C5.23183,15.59152,3.5,12.05041,3.5,8.299V3.88344
	l0.22454-0.14823C5.34586,2.66495,7.81071,2,10,2c2.18897,0,4.65426,0.66503,6.27546,1.73522L16.5,3.88344V8.299
	c0,3.75141-1.73183,7.29252-4.69303,9.59568L11.67155,18H8.32845z M4.5,8.299c0,3.38614,1.53746,6.58556,4.17366,8.701h2.65269
	C13.96254,14.88456,15.5,11.68514,15.5,8.299V4.42822C14.04786,3.55328,11.90129,3,10,3C8.09841,3,5.9522,3.55321,4.5,4.42822V8.299
	z M8.9883,9.4998h2.0115c0.82836,0,1.5-0.67164,1.5-1.5s-0.67164-1.5-1.5-1.5H8.9883V9.4998z"/>
</svg>

<svg xmlns="http://www.w3.org/2000/svg" viewBox="0 0 20 20" style="enable-background:new 0 0 20 20" xml:space="preserve"><path d="M7.988 11.5v-1H7v-1h.988v-4H11a2.5 2.5 0 0 1 0 5H8.988v1H12v1H8.988v1.488h-1V12.5H7v-1h.988zm.34 6.5-.135-.105A12.156 12.156 0 0 1 3.5 8.299V3.883l.225-.148C5.345 2.665 7.81 2 10 2s4.654.665 6.275 1.735l.225.148V8.3c0 3.751-1.732 7.293-4.693 9.596l-.135.105H8.328zM4.5 8.299c0 3.386 1.537 6.586 4.174 8.701h2.652A11.156 11.156 0 0 0 15.5 8.299v-3.87C14.048 3.552 11.901 3 10 3c-1.902 0-4.048.553-5.5 1.428V8.3zm4.488 1.2H11a1.5 1.5 0 0 0 0-3H8.988v3z"/></svg>
